X:795
T:Out on the Ocean.
C:F. O'Neill.
B:O'Neill's Music of Ireland
N:O'Neill's - 795
Z:Transcribed by Stephen Foy (shf@access.digex.net)
Z:abc 1.6
R:Jig
M:6/8
K:G
e|dcB cBAG|BdB A2 B|GED G2 A|cBAB GED|\
dcB cBAG|BdB A2 B|GED G2 A|cBGG G2:|
||d|efd fedB|efe fdB|ded dBd|gfe dBA|\
AGFG BAGA|BcB B2 A|GED G2 A|cBGG G2:|
